X:76
T:Drops Of Brandy. WM.075
M:9/8
L:1/8
Q:3/8=120
S:Wm.Mittell’s MS, New Romney,Kent,1799
R:.Slip Jig
O:England
A:Kent
N:Compare with WM.08
Z:vmp.Chris Partington
K:G
GAB BAB BAB|GAB gdBd2g|GAB BAB BAB|FGA ABG F2D:|!
|:GAB gdB gdB|GAB gdB cBA|GAB gdB gdB|FGA ABG F2D:|

